icons/op-export-csv-24.svg

<svg width="24" height="24" viewBox="0 0 24 24" fill="none" xmlns="http://www.w3.org/2000/svg">
<path d="M10.0812 16.8438C10.0508 16.8438 9.98985 16.8438 9.95939 16.875C9.92893 16.9062 9.89848 16.9375 9.83756 16.9688C9.80711 17 9.74619 17.0312 9.68528 17.0625C9.59391 17.0938 9.50254 17.125 9.41117 17.125C9.28934 17.125 9.19797 17.0938 9.1066 17.0312C9.01523 17 8.95431 16.9375 8.8934 16.8438C8.83249 16.7812 8.77157 16.6562 8.74112 16.5625C8.71066 16.4375 8.6802 16.2812 8.6802 16.125C8.6802 15.9688 8.71066 15.8438 8.74112 15.7188C8.77157 15.5938 8.80203 15.5 8.86294 15.4062C8.92386 15.3438 9.01523 15.25 9.1066 15.2188C9.19797 15.1875 9.28934 15.1562 9.41117 15.1562C9.53299 15.1562 9.59391 15.1562 9.65482 15.1875C9.71574 15.2188 9.77665 15.2188 9.83756 15.25C9.86802 15.2812 9.92893 15.3125 9.95939 15.3438C9.98985 15.3438 10.0203 15.375 10.0508 15.375C10.0812 15.375 10.1117 15.3438 10.1421 15.3438C10.1726 15.3438 10.1726 15.3125 10.203 15.2812L10.3858 15.0312C10.264 14.875 10.1117 14.7812 9.95939 14.7188C9.77665 14.6562 9.59391 14.5938 9.38071 14.5938C9.16751 14.5938 8.95431 14.6562 8.77157 14.7188C8.58883 14.8125 8.46701 14.9062 8.34518 15.0312C8.22335 15.1875 8.13198 15.3438 8.07107 15.5312C8.01015 15.7188 7.9797 15.9062 7.9797 16.125C7.9797 16.375 8.01015 16.5938 8.07107 16.7812C8.16244 16.9688 8.25381 17.125 8.34518 17.25C8.46701 17.375 8.61929 17.4688 8.77157 17.5625C8.92386 17.625 9.1066 17.6562 9.28934 17.6562C9.38071 17.6562 9.47208 17.6562 9.59391 17.625C9.68528 17.625 9.77665 17.5938 9.86802 17.5625C9.98985 17.5 10.0812 17.4688 10.1726 17.4062C10.264 17.3438 10.3249 17.25 10.4162 17.1562L10.203 16.9062C10.1726 16.875 10.1421 16.8438 10.0812 16.8438ZM12.5482 16.1562C12.4873 16.0938 12.3959 16.0312 12.3046 16C12.2437 15.9688 12.1523 15.9062 12.0609 15.875C11.9695 15.8438 11.8782 15.8125 11.7868 15.8125C11.6954 15.7812 11.6345 15.75 11.5736 15.7188C11.5127 15.6875 11.4518 15.6562 11.4213 15.5938C11.3604 15.5625 11.3604 15.5 11.3604 15.4375C11.3604 15.3438 11.3909 15.2812 11.4518 15.2188C11.5431 15.1562 11.665 15.125 11.7868 15.125C11.8782 15.125 11.9391 15.125 12.0305 15.1562C12.0914 15.1562 12.1523 15.1875 12.1827 15.2188C12.2437 15.25 12.2741 15.25 12.335 15.2812C12.3655 15.3125 12.3959 15.3125 12.4264 15.3125C12.4569 15.3125 12.4873 15.3125 12.5178 15.2812C12.5482 15.2812 12.5482 15.25 12.5787 15.2188L12.731 14.9688C12.6396 14.875 12.4873 14.7812 12.335 14.7188C12.1523 14.6562 11.9695 14.5938 11.7868 14.5938C11.6041 14.5938 11.4518 14.625 11.2995 14.6875C11.1777 14.7188 11.0558 14.7812 10.9645 14.875C10.8731 14.9688 10.8122 15.0625 10.7513 15.1562C10.6904 15.25 10.6904 15.375 10.6904 15.5C10.6904 15.625 10.6904 15.75 10.7513 15.8438C10.7817 15.9375 10.8426 16 10.9036 16.0625C10.9645 16.125 11.0558 16.1875 11.1472 16.2188C11.2081 16.25 11.2995 16.3125 11.3909 16.3438C11.4822 16.375 11.5736 16.4062 11.665 16.4062C11.7563 16.4375 11.8173 16.4688 11.8782 16.5C11.9391 16.5312 12 16.5625 12.0609 16.625C12.0914 16.6562 12.0914 16.7188 12.0914 16.7812V16.9375L12 17.0312C11.9695 17.0625 11.9086 17.0938 11.8477 17.125C11.7868 17.125 11.7259 17.1562 11.6345 17.1562C11.5431 17.1562 11.4518 17.125 11.3909 17.125C11.2995 17.0938 11.2386 17.0625 11.2081 17.0312C11.1472 17 11.0863 16.9688 11.0558 16.9375C11.0254 16.9375 10.9949 16.9062 10.934 16.9062C10.9036 16.9062 10.8731 16.9062 10.8426 16.9375C10.8122 16.9688 10.7817 16.9688 10.7513 17L10.599 17.2812C10.6599 17.3438 10.7208 17.375 10.7817 17.4375C10.8731 17.4688 10.9645 17.5 11.0254 17.5625C11.1168 17.5938 11.2081 17.5938 11.2995 17.625C11.4213 17.6562 11.5127 17.6562 11.6041 17.6562C11.7868 17.6562 11.9695 17.625 12.0914 17.5938C12.2437 17.5312 12.3655 17.4688 12.4569 17.375C12.5787 17.2812 12.6396 17.1875 12.7005 17.0625C12.7614 16.9375 12.7614 16.8125 12.7614 16.6562C12.7614 16.5312 12.7614 16.4375 12.7005 16.3438C12.6701 16.2812 12.6091 16.2188 12.5482 16.1562ZM15.3503 14.6562C15.2893 14.6562 15.2589 14.6562 15.2284 14.6875C15.1675 14.7188 15.1675 14.75 15.1371 14.7812L14.5888 16.375C14.5584 16.4688 14.5279 16.5625 14.4975 16.625C14.467 16.7188 14.467 16.8125 14.4365 16.9062C14.4061 16.8125 14.4061 16.7188 14.3756 16.625C14.3452 16.5625 14.3147 16.4688 14.2843 16.375L13.736 14.7812C13.736 14.75 13.7056 14.7188 13.6751 14.6875C13.6447 14.6562 13.5838 14.6562 13.5533 14.6562H12.9746L14.1015 17.625H14.7411L15.8985 14.6562H15.3503ZM18 7.71875L14.3756 4H6V20H18V7.71875H17.9695H18ZM7.40102 18.5625V5.4375H13.797L16.599 8.3125V18.5625H7.40102Z" fill="black"/>
</svg>

<svg xmlns="http://www.w3.org/2000/svg" width="24" height="24" viewBox="0 0 24 24"><path d="M10.081 16.844c-.03 0-.091 0-.122.031a.423.423 0 0 1-.121.094c-.031.031-.092.062-.153.093a.845.845 0 0 1-.274.063.5.5 0 0 1-.304-.094c-.092-.031-.153-.093-.214-.187a.839.839 0 0 1-.152-.282 1.903 1.903 0 0 1-.061-.437c0-.156.031-.281.061-.406a.965.965 0 0 1 .122-.313c.061-.062.152-.156.244-.187.091-.031.182-.063.304-.063s.183 0 .244.032c.061.031.122.031.183.062.03.031.091.062.121.094.031 0 .061.031.092.031.03 0 .061-.031.091-.031.031 0 .031-.032.061-.063l.183-.25a1.006 1.006 0 0 0-.427-.312c-.182-.063-.365-.125-.578-.125-.213 0-.427.062-.609.125a1.517 1.517 0 0 0-.427.312 1.608 1.608 0 0 0-.274.5 1.863 1.863 0 0 0-.091.594c0 .25.03.469.091.656.091.188.183.344.274.469.122.125.274.219.427.312.152.063.335.094.517.094.092 0 .183 0 .305-.031a.85.85 0 0 0 .274-.063c.122-.062.213-.093.305-.156.091-.062.152-.156.243-.25l-.213-.25c-.03-.031-.061-.062-.122-.062Zm2.467-.688a.665.665 0 0 0-.243-.156c-.061-.031-.153-.094-.244-.125s-.183-.063-.274-.063a1.396 1.396 0 0 1-.213-.093c-.061-.031-.122-.063-.153-.125-.061-.032-.061-.094-.061-.156 0-.094.031-.157.092-.219a.597.597 0 0 1 .335-.094c.091 0 .152 0 .243.031.061 0 .122.032.153.063.061.031.091.031.152.062.031.031.061.031.091.031.031 0 .061 0 .092-.031.03 0 .03-.031.061-.062l.152-.25a1.234 1.234 0 0 0-.396-.25c-.183-.063-.365-.125-.548-.125-.183 0-.335.031-.487.094a.72.72 0 0 0-.336.187 1.735 1.735 0 0 0-.213.281c-.061.094-.061.219-.061.344 0 .125 0 .25.061.344a.558.558 0 0 0 .153.218c.06.063.152.126.243.157.061.031.153.093.244.125a.875.875 0 0 0 .274.062c.091.032.152.063.213.094a.622.622 0 0 1 .183.125c.03.031.03.094.03.156v.157l-.091.093a.648.648 0 0 1-.152.094c-.061 0-.122.031-.214.031-.091 0-.182-.031-.243-.031a.5.5 0 0 1-.183-.094.65.65 0 0 1-.152-.093c-.031 0-.061-.032-.122-.032-.03 0-.061 0-.091.032-.031.031-.061.031-.092.062l-.152.281c.061.063.122.094.183.157.091.031.182.062.243.124.092.032.183.032.275.063.121.031.213.031.304.031.183 0 .366-.031.487-.062.153-.063.275-.125.366-.219a.775.775 0 0 0 .243-.313c.061-.124.061-.25.061-.406 0-.125 0-.218-.061-.312-.03-.063-.091-.125-.152-.188Zm2.802-1.5c-.061 0-.091 0-.122.032-.06.031-.06.062-.091.093l-.548 1.594c-.031.094-.061.187-.091.25-.031.094-.031.187-.061.281-.031-.094-.031-.187-.061-.281-.031-.063-.061-.156-.092-.25l-.548-1.594c0-.031-.03-.062-.061-.093-.03-.032-.091-.032-.122-.032h-.578l1.126 2.969h.64l1.158-2.969h-.549ZM18 7.719 14.376 4H6v16h12V7.719h-.03.03ZM7.401 18.562V5.438h6.396l2.802 2.874v10.25H7.401Z"/></svg>
